X:26
T:Allistrum's March
R:march
H:See also #19, #27, #28
D:Niall & Cillian Vallely: Callan Bridge
Z:id:hn-march-26
M:6/8
L:1/8
K:G
egg eaa | egg ged | egg eaa | bag e2d :|
|: BAA BGG | BAg ged | BAA BGG | BAg e2d :|
<end>
<start>
